X: 12
T: The Pigeon On The Gate
R: reel
M: 4/4
L: 1/8
K: Edor
|:B~E3 (3Bcd cA | B~E3 ~B2AF |D2 (3FED ADFD | FAAc BAFA |
B~E3 (3Bcd cA | B~E3 ~B2AF | A2AB dcde | fedf e2dc :|
|:Beed efed | (3Bcd ef gfec |"A" dBAF DEFD | (3Bcd ef gefd |
Beed efed | (3Bcd ef~g3a |"B" bgaf (3gfe fd | egfd e2dc :|
"Variations"|"A" d2fe dcdB | ABde fded |"B" f~b3 f~a3 | egfd e2dc |


Tune 517	Setting 28326

